X:1
T:Title
%%score ( 1 2 ) ( 3 4 )
L:1/8
Q:1/4=90
M:4/4
K:Eb
V:1 treble nm="Midi_20"
V:2 treble 
V:3 bass nm="Midi_20"
V:4 bass 
V:1
"^Portsea (87. 87.)""^William Boyce\n(1710-79)" c2 BA G2 A2 | F2 G2 E2 D2 | C2 D2 EF G2 | %3
 c2 d2 =B4 || c2 d2 e2 dc | B2 A2 G2 F2 | E2 F2 G2 c2 | FE D2 C4 |] %8
V:2
 E2 F2 E2 E2 | D2 D2 C2 =B,2 | C2 =B,2 C2 C2 | E2 F2 D4 || G2 G2 G2 F2 | F2 D2 E2 D2 | %6
 C2 D2 E2 E2 | DC C=B, C4 |] %8
V:3
 G,2 B,2 B,2 C2 | A,2 G,2 G,2 G,2 | E,2 G,2 G,2 G,2 | A,2 A,2 G,4 || C2 =B,2 C2 A,2 | %5
 _B,2 B,2 B,2 A,2 | G,2 B,2 B,2 A,2 | A,C G,F, E,4 |] %8
V:4
 C,2 D,2 E,2 C,2 | D,2 =B,,2 C,2 G,,2 | A,,2 G,,2 C,2 E,2 | A,2 F,2 G,4 || E,2 D,2 C,2 F,2 | %5
 D,2 B,,2 E,2 B,,2 | C,2 B,,2 E,2 A,,2 | F,,2 G,,2 C,4 |] %8

